img/state_fees_service.svg

<?xml version="1.0" encoding="utf-8"?>
<!-- Generator: Adobe Illustrator 25.3.1, SVG Export Plug-In . SVG Version: 6.00 Build 0)  -->
<svg version="1.1" id="Layer_1" xmlns="http://www.w3.org/2000/svg" xmlns:xlink="http://www.w3.org/1999/xlink" x="0px" y="0px"
	 viewBox="0 0 1024 768" style="enable-background:new 0 0 1024 768;" xml:space="preserve">
<style type="text/css">
	.st0{fill:#075985;}
	.st1{fill:#FFDE16;stroke:#000000;stroke-miterlimit:10;}
	.st2{fill:none;stroke:#FACC15;stroke-width:5;stroke-miterlimit:10;}
	.st3{fill:#FFFFFF;}
	.st4{opacity:0.12;}
	.st5{fill:none;}
</style>
<path class="st0" d="M1024,0v647.1c-38.3-1.6-79.4,48.6-114.3,40c-72-17.7-45.9-96.4-92-111.8C736.3,547.9,758,676.7,633.2,714
	c-136.8,27.8-243.5-91.1-270.7-14c-20.5,58.2-60.7,84.7-140.8,52.7C134,717.7,128,652.3,0,721.1V0H1024z"/>
<path class="st1" d="M717.1-512.5"/>
<path class="st1" d="M952.9-512.1"/>
<path class="st2" d="M0,305.4c44.2,19.6,66,14.8,76-4.3c10.6-20.4,7.1-57,3.2-96.8C75,161,70.4,113.9,83.4,80.4
	c17-44.1,64.9-64.5,185.7-21c32.8,11.9,67,22,101.5,29.6c82.2,18.1,166.1,21.8,237.4,0.3C659.3,73.9,704,45.4,737.1,0"/>
<path class="st1" d="M419.2-298.8"/>
<path class="st1" d="M422.1-394"/>
<path class="st1" d="M426.4-519.1"/>
<path class="st1" d="M616-541.9"/>
<g>
	<path class="st3" d="M649.1,431.3l-258,138c-1,0.5-2.2,0.6-3.2,0.1l-154-65.9c-1.9-0.8-2.8-3-2-4.9c0.6-1.4,2-2.2,3.4-2.2
		c0.5,0,1,0.1,1.5,0.3l152.4,65.2l256.4-137.2c1.8-1,4.1-0.3,5,1.5C651.6,428.1,650.9,430.3,649.1,431.3z"/>
	<path class="st3" d="M649.1,463.1l-258,138c-1,0.5-2.2,0.6-3.2,0.1l-154-65.9c-1.9-0.8-2.8-3-2-4.9c0.6-1.4,2-2.2,3.4-2.2
		c0.5,0,1,0.1,1.5,0.3l152.4,65.2l256.4-137.2c1.8-1,4.1-0.3,5,1.5C651.6,459.9,650.9,462.2,649.1,463.1z"/>
	<path class="st3" d="M650.9,492.8c-0.3,1-0.9,1.7-1.8,2.2l-258,138c-1,0.5-2.2,0.6-3.2,0.1l-154-65.9c-1.9-0.8-2.8-3-2-4.9
		c0.6-1.4,2-2.2,3.4-2.2c0.5,0,1,0.1,1.5,0.3l152.4,65.2l256.4-137.2c1.8-1,4.1-0.3,5,1.5C651.1,490.9,651.2,491.9,650.9,492.8z"/>
	<path class="st3" d="M649.1,399.4l-258,138c-1,0.5-2.2,0.6-3.2,0.1l-154-65.9c-1.9-0.8-2.8-3-2-4.9c0.6-1.4,2-2.2,3.4-2.2
		c0.5,0,1,0.1,1.5,0.3L389.2,530l256.4-137.2c1.8-1,4.1-0.3,5,1.5C651.6,396.2,650.9,398.5,649.1,399.4z"/>
	<path class="st3" d="M648.8,360.9l-154-65.9c-1-0.4-2.2-0.4-3.2,0.1l-66.2,35.4v-114c0-0.3,0-0.6-0.2-1l-0.1-0.3v-0.3
		c-1.4-18.1-26.9-32.3-58.1-32.3c-32.6,0-58.2,14.9-58.2,33.9V328l-4.2-0.9c-6.6-1.5-13.6-2.2-20.8-2.2c-32.6,0-58.2,14.9-58.2,33.9
		c0,3.7,1,7.3,3,10.8l3.7,6.6l-7.4-1.4c-5.9-1.1-12-1.7-18.3-1.7c-32.6,0-58.2,14.9-58.2,33.9v129.9c0,19,25.6,33.9,58.2,33.9
		c2,0,3.7-1.7,3.7-3.7s-1.7-3.7-3.7-3.7c-30.4,0-50.7-13.7-50.7-26.5v-14.3l5.5,4c11,7.9,27.5,12.5,45.2,12.5c2,0,3.7-1.7,3.7-3.7
		s-1.7-3.7-3.7-3.7c-30.4,0-50.7-13.7-50.7-26.5V490l5.5,4c11,7.9,27.5,12.5,45.2,12.5c2,0,3.7-1.7,3.7-3.7s-1.7-3.7-3.7-3.7
		c-30.4,0-50.7-13.7-50.7-26.5v-15.2l5.5,4c11,7.9,27.5,12.5,45.2,12.5c2,0,3.7-1.7,3.7-3.7c0-2.1-1.7-3.7-3.7-3.7
		c-30.4,0-50.7-13.7-50.7-26.5v-15.2l5.5,4c11,7.9,27.5,12.5,45.2,12.5c8,0,15.7-0.9,23-2.7l1.9-0.5l1.4,1.4
		c0.3,0.3,0.7,0.6,1.1,0.8l154,65.9c1,0.4,2.2,0.4,3.2-0.1l258-138c1.2-0.7,2-2,1.9-3.4C651,362.7,650.1,361.4,648.8,360.9z
		 M367,190.1c30.3,0,50.7,13.7,50.7,26.5s-20.4,26.5-50.7,26.5c-30.4,0-50.7-13.7-50.7-26.5S336.7,190.1,367,190.1z M316.3,234
		l5.5,4c11,7.9,27.5,12.5,45.2,12.5c17.8,0,34.4-4.6,45.4-12.6l5.6-4v16l-0.1,0.4c-0.1,0.3-0.1,0.6-0.1,0.9
		c0,12.8-20.4,26.5-50.7,26.5c-30.4,0-50.7-13.7-50.7-26.5L316.3,234L316.3,234z M316.3,268.5l5.5,4c11,7.9,27.5,12.5,45.2,12.5
		c17.8,0,34.4-4.6,45.4-12.6l5.6-4V282l-0.1,0.4c-0.1,0.3-0.1,0.6-0.1,0.8c0,12.8-20.4,26.5-50.7,26.5c-30.4,0-50.7-13.7-50.7-26.5
		L316.3,268.5L316.3,268.5z M316.3,300.7l5.5,4c11,7.9,27.5,12.5,45.2,12.5c17.8,0,34.4-4.6,45.4-12.6l5.6-4v13.7l-0.1,0.4
		c-0.1,0.3-0.1,0.6-0.1,0.8c0,12.8-20.4,26.5-50.7,26.5c-30.4,0-50.7-13.7-50.7-26.5L316.3,300.7L316.3,300.7z M340.5,351.4
		l-2.3-6.2l6.4,1.5c7.1,1.7,14.6,2.6,22.4,2.6c3.2,0,6.5-0.2,9.8-0.5l17.4-1.7l-60.9,32.6l5.8-10.4c1.9-3.4,2.9-7,2.9-10.6
		C341.9,356.3,341.4,353.9,340.5,351.4z M283.7,332.3c9.3,0,18.1,1.3,26.1,3.9l0.4,0.1l0.4,0.2c0.4,0.3,0.9,0.4,1.5,0.5l0.4,0.1
		l0.4,0.1c13.3,5,21.6,13.3,21.6,21.5c0,12.8-20.4,26.5-50.7,26.5c-30.4,0-50.7-13.7-50.7-26.5C233,346,253.4,332.3,283.7,332.3z
		 M261.8,396.2l-3.7-6.6l7.4,1.4c5.9,1.1,12,1.7,18.3,1.7c4.2,0,8.4-0.3,12.5-0.8l18.7-2.3l-51.6,27.6l1.1-7
		c0.2-1.1,0.3-2.2,0.3-3.3C264.7,403.3,263.7,399.6,261.8,396.2z M206.6,433.4c-30.4,0-50.7-13.7-50.7-26.5s20.4-26.5,50.7-26.5
		s50.7,13.7,50.7,26.5S236.9,433.4,206.6,433.4z M389.2,498.2L243.9,436l249.6-133.5l145.3,62.2L389.2,498.2z"/>
	<path class="st3" d="M574.9,377.1c0,1-0.5,2-1.4,2.5L520.3,408c-1.3,0.7-3,0.2-3.6-1.1c-0.3-0.6-0.4-1.3-0.2-2s0.7-1.2,1.3-1.6
		l48.4-25.9l-1.9-3.2c-0.7-1.2-1.1-2.5-1.2-3.8c0-1.1,0.1-2.8,1.1-4.6l1.9-3.4l-61-26.1l-1.4,0.6c-8.4,3.5-20.1,4.2-28.5,1.6
		l-1.4-0.4l-52,27.8c-1.3,0.7-2.9,0.2-3.6-1.1c-0.3-0.6-0.4-1.4-0.2-2c0.2-0.7,0.7-1.2,1.3-1.6l53.2-28.5c0.7-0.4,1.6-0.4,2.3-0.1
		c7.8,3.3,21,2.6,28.9-1.6c0.7-0.4,1.6-0.4,2.3-0.1l67.3,28.8c0.9,0.4,1.6,1.3,1.6,2.4c0,1-0.5,2-1.4,2.5c-2.4,1.3-3.7,2.6-4.3,3.4
		l-1.8,2.4l2.1,2.1c0.8,0.9,2,1.6,3.6,2.3C574.2,375.2,574.8,376.1,574.9,377.1z"/>
	<path class="st3" d="M467,435.7c-0.2,0.7-0.7,1.2-1.3,1.6l-53.3,28.5c-0.7,0.4-1.6,0.4-2.3,0.1c-7.8-3.3-21-2.6-28.9,1.6
		c-0.7,0.4-1.6,0.4-2.3,0.1l-67.3-28.8c-0.9-0.4-1.6-1.3-1.6-2.3s0.5-2,1.4-2.5c2.4-1.3,3.7-2.6,4.3-3.4l1.8-2.4l-2.1-2.1
		c-0.8-0.8-2-1.6-3.6-2.3c-0.9-0.4-1.6-1.3-1.6-2.4c-0.1-1,0.5-2,1.4-2.5l53.3-28.5c0.4-0.2,0.8-0.3,1.3-0.3c0.3,0,0.5,0,0.8,0.1
		c0.7,0.2,1.2,0.7,1.6,1.3c0.3,0.6,0.4,1.4,0.2,2c-0.2,0.7-0.7,1.2-1.3,1.6l-48.6,26l1.9,3.2c0.7,1.2,1.1,2.5,1.2,3.8
		c0,1.1-0.1,2.7-1.2,4.6l-1.9,3.4l61,26.1l1.4-0.6c8.4-3.5,20.1-4.2,28.5-1.6l1.4,0.4l52.2-27.9c0.6-0.3,1.4-0.4,2-0.2
		c0.7,0.2,1.2,0.7,1.6,1.3C467.1,434.3,467.2,435,467,435.7z"/>
	<path class="st3" d="M264.4,139.7v6.4c0,2-1.7,3.7-3.7,3.7s-3.7-1.7-3.7-3.7v-6.4c0-2,1.7-3.7,3.7-3.7S264.4,137.6,264.4,139.7z"/>
	<path class="st3" d="M264.4,183.8v6.4c0,2-1.7,3.7-3.7,3.7s-3.7-1.7-3.7-3.7v-6.4c0-2.1,1.7-3.7,3.7-3.7S264.4,181.8,264.4,183.8z"
		/>
	<path class="st3" d="M245.5,165c0,2.1-1.7,3.7-3.7,3.7h-6.4c-2,0-3.7-1.7-3.7-3.7s1.7-3.7,3.7-3.7h6.4
		C243.9,161.3,245.5,162.9,245.5,165z"/>
	<path class="st3" d="M289.7,165c0,2.1-1.7,3.7-3.7,3.7h-6.4c-2,0-3.7-1.7-3.7-3.7s1.7-3.7,3.7-3.7h6.4
		C288,161.3,289.7,162.9,289.7,165z"/>
	<path class="st3" d="M534,200.5v6.4c0,2.1-1.7,3.7-3.7,3.7s-3.7-1.7-3.7-3.7v-6.4c0-2,1.7-3.7,3.7-3.7S534,198.4,534,200.5z"/>
	<path class="st3" d="M534,244.6v6.4c0,2-1.7,3.7-3.7,3.7s-3.7-1.7-3.7-3.7v-6.4c0-2,1.7-3.7,3.7-3.7
		C532.3,240.9,534,242.6,534,244.6z"/>
	<path class="st3" d="M515.1,225.8c0,2-1.7,3.7-3.7,3.7H505c-2,0-3.7-1.7-3.7-3.7c0-2.1,1.7-3.7,3.7-3.7h6.4
		C513.5,222.1,515.1,223.7,515.1,225.8z"/>
	<path class="st3" d="M559.3,225.8c0,2-1.7,3.7-3.7,3.7h-6.4c-2.1,0-3.7-1.7-3.7-3.7c0-2.1,1.7-3.7,3.7-3.7h6.4
		C557.6,222.1,559.3,223.7,559.3,225.8z"/>
	<path class="st3" d="M185,247.8v6.4c0,2.1-1.7,3.7-3.7,3.7c-2.1,0-3.7-1.7-3.7-3.7v-6.4c0-2,1.7-3.7,3.7-3.7S185,245.7,185,247.8z"
		/>
	<path class="st3" d="M185,291.9v6.4c0,2-1.7,3.7-3.7,3.7c-2.1,0-3.7-1.7-3.7-3.7v-6.4c0-2,1.7-3.7,3.7-3.7
		C183.3,288.2,185,289.9,185,291.9z"/>
	<path class="st3" d="M166.1,273.1c0,2-1.7,3.7-3.7,3.7H156c-2,0-3.7-1.7-3.7-3.7s1.7-3.7,3.7-3.7h6.4
		C164.5,269.4,166.1,271,166.1,273.1z"/>
	<path class="st3" d="M210.3,273.1c0,2-1.7,3.7-3.7,3.7h-6.4c-2,0-3.7-1.7-3.7-3.7s1.7-3.7,3.7-3.7h6.4
		C208.6,269.4,210.3,271,210.3,273.1z"/>
	
		<ellipse transform="matrix(0.3827 -0.9239 0.9239 0.3827 -67.5704 393.4642)" class="st3" cx="260.7" cy="247.3" rx="5.7" ry="5.7"/>
	<ellipse class="st3" cx="598.5" cy="283.3" rx="5.7" ry="5.7"/>
</g>
<g>
	<path class="st3" d="M441.4,373.6c-22.2,0-40.7,9.7-42.7,22.5c-0.8,5.4,1.4,10.6,5.8,14.9l-6.4,3.7l3,4.1l7.7-4.4
		c0.8,0.5,1.6,1,2.4,1.5s1.7,0.9,2.6,1.4l-5.6,3.2l3,4.1l8.5-4.9c5.3,1.8,11.3,3,17.8,3.3c23.6,1.3,44.4-8.8,46.5-22.4l-7.1-4.1
		c0.2,1.2,0.2,2.4,0,3.6c-1.7,11.4-18.9,19.8-38.6,18.8c-4.8-0.2-9.4-1-13.4-2.3l33.4-19.4l-3-4.1l-36.6,21.2
		c-0.9-0.4-1.8-0.9-2.6-1.4c-0.9-0.5-1.7-1-2.4-1.5l38.6-22.5l-3-4.1L409.8,408c-3.1-3.4-4.6-7.3-4-11.4
		c1.7-11.4,18.9-19.8,38.6-18.8L441.4,373.6"/>
</g>
<g>
	<g class="st4">
		<rect x="812.7" y="36.4" width="115.8" height="25.7"/>
		<path d="M960.3,267.5v25.9c-65.8,2-128.9,25.1-179.6,66.5C825.8,306.2,890.3,273.5,960.3,267.5z"/>
		<path d="M921.8,113.5v143.2c-8.7,2.5-17.2,5.4-25.6,8.9V139.2h-12.8v132.2c-8.8,4.3-17.4,9.2-25.6,14.7V139.2h-12.8v156.1
			c-9.2,7-17.7,14.6-25.6,22.8V113.5H921.8z"/>
		<path d="M986.4,113.9c0,21.5-17.4,38.9-38.8,38.9v-25.7c7.3,0,13.2-5.9,13.2-13.2s-5.9-13.2-13.2-13.2H793.6
			c-7.3,0-13.2,5.9-13.2,13.2s5.9,13.2,13.2,13.2v25.7c-21.5,0-38.8-17.4-38.8-38.9S772.1,75,793.6,75c94.3,0,59.6,0,153.9,0
			C969,74.9,986.4,92.4,986.4,113.9z"/>
	</g>
	<rect x="717.1" class="st5" width="306.9" height="396.3"/>
</g>
</svg>

<svg width="800" height="800" viewBox="0 0 800 800" fill="none" xmlns="http://www.w3.org/2000/svg">
<g clip-path="url(#clip0_1_126)">
<path d="M800 0V675.438C770.078 673.768 737.969 726.167 710.703 717.19C654.453 698.715 674.844 616.568 638.828 600.494C575.234 571.894 592.188 706.335 494.688 745.268C387.813 774.286 304.453 650.179 283.203 730.655C267.188 791.404 235.781 819.064 173.203 785.663C104.688 749.13 100 680.866 0 752.679V0H800Z" fill="#226679"/>
<path d="M0 305.4C44.2 325 66 320.2 76 301.1C86.6 280.7 83.1 244.1 79.2 204.3C75 161 70.4 113.9 83.4 80.4C100.4 36.3 148.3 15.9 269.1 59.4C301.9 71.3 336.1 81.4 370.6 89C452.8 107.1 536.7 110.8 608 89.3C659.3 73.9 704 45.4 737.1 0" stroke="#FACC15" stroke-width="5" stroke-miterlimit="10"/>
<path d="M649.1 431.3L391.1 569.3C390.1 569.8 388.9 569.9 387.9 569.4L233.9 503.5C232 502.7 231.1 500.5 231.9 498.6C232.5 497.2 233.9 496.4 235.3 496.4C235.8 496.4 236.3 496.5 236.8 496.7L389.2 561.9L645.6 424.7C647.4 423.7 649.7 424.4 650.6 426.2C651.6 428.1 650.9 430.3 649.1 431.3Z" fill="white"/>
<path d="M649.1 463.1L391.1 601.1C390.1 601.6 388.9 601.7 387.9 601.2L233.9 535.3C232 534.5 231.1 532.3 231.9 530.4C232.5 529 233.9 528.2 235.3 528.2C235.8 528.2 236.3 528.3 236.8 528.5L389.2 593.7L645.6 456.5C647.4 455.5 649.7 456.2 650.6 458C651.6 459.9 650.9 462.2 649.1 463.1Z" fill="white"/>
<path d="M650.9 492.8C650.6 493.8 650 494.5 649.1 495L391.1 633C390.1 633.5 388.9 633.6 387.9 633.1L233.9 567.2C232 566.4 231.1 564.2 231.9 562.3C232.5 560.9 233.9 560.1 235.3 560.1C235.8 560.1 236.3 560.2 236.8 560.4L389.2 625.6L645.6 488.4C647.4 487.4 649.7 488.1 650.6 489.9C651.1 490.9 651.2 491.9 650.9 492.8Z" fill="white"/>
<path d="M649.1 399.4L391.1 537.4C390.1 537.9 388.9 538 387.9 537.5L233.9 471.6C232 470.8 231.1 468.6 231.9 466.7C232.5 465.3 233.9 464.5 235.3 464.5C235.8 464.5 236.3 464.6 236.8 464.8L389.2 530L645.6 392.8C647.4 391.8 649.7 392.5 650.6 394.3C651.6 396.2 650.9 398.5 649.1 399.4Z" fill="white"/>
<path d="M648.8 360.9L494.8 295C493.8 294.6 492.6 294.6 491.6 295.1L425.4 330.5V216.5C425.4 216.2 425.4 215.9 425.2 215.5L425.1 215.2V214.9C423.7 196.8 398.2 182.6 367 182.6C334.4 182.6 308.8 197.5 308.8 216.5V328L304.6 327.1C298 325.6 291 324.9 283.8 324.9C251.2 324.9 225.6 339.8 225.6 358.8C225.6 362.5 226.6 366.1 228.6 369.6L232.3 376.2L224.9 374.8C219 373.7 212.9 373.1 206.6 373.1C174 373.1 148.4 388 148.4 407V536.9C148.4 555.9 174 570.8 206.6 570.8C208.6 570.8 210.3 569.1 210.3 567.1C210.3 565.1 208.6 563.4 206.6 563.4C176.2 563.4 155.9 549.7 155.9 536.9V522.6L161.4 526.6C172.4 534.5 188.9 539.1 206.6 539.1C208.6 539.1 210.3 537.4 210.3 535.4C210.3 533.4 208.6 531.7 206.6 531.7C176.2 531.7 155.9 518 155.9 505.2V490L161.4 494C172.4 501.9 188.9 506.5 206.6 506.5C208.6 506.5 210.3 504.8 210.3 502.8C210.3 500.8 208.6 499.1 206.6 499.1C176.2 499.1 155.9 485.4 155.9 472.6V457.4L161.4 461.4C172.4 469.3 188.9 473.9 206.6 473.9C208.6 473.9 210.3 472.2 210.3 470.2C210.3 468.1 208.6 466.5 206.6 466.5C176.2 466.5 155.9 452.8 155.9 440V424.8L161.4 428.8C172.4 436.7 188.9 441.3 206.6 441.3C214.6 441.3 222.3 440.4 229.6 438.6L231.5 438.1L232.9 439.5C233.2 439.8 233.6 440.1 234 440.3L388 506.2C389 506.6 390.2 506.6 391.2 506.1L649.2 368.1C650.4 367.4 651.2 366.1 651.1 364.7C651 362.7 650.1 361.4 648.8 360.9ZM367 190.1C397.3 190.1 417.7 203.8 417.7 216.6C417.7 229.4 397.3 243.1 367 243.1C336.6 243.1 316.3 229.4 316.3 216.6C316.3 203.8 336.7 190.1 367 190.1ZM316.3 234L321.8 238C332.8 245.9 349.3 250.5 367 250.5C384.8 250.5 401.4 245.9 412.4 237.9L418 233.9V249.9L417.9 250.3C417.8 250.6 417.8 250.9 417.8 251.2C417.8 264 397.4 277.7 367.1 277.7C336.7 277.7 316.4 264 316.4 251.2L316.3 234ZM316.3 268.5L321.8 272.5C332.8 280.4 349.3 285 367 285C384.8 285 401.4 280.4 412.4 272.4L418 268.4V282L417.9 282.4C417.8 282.7 417.8 283 417.8 283.2C417.8 296 397.4 309.7 367.1 309.7C336.7 309.7 316.4 296 316.4 283.2L316.3 268.5ZM316.3 300.7L321.8 304.7C332.8 312.6 349.3 317.2 367 317.2C384.8 317.2 401.4 312.6 412.4 304.6L418 300.6V314.3L417.9 314.7C417.8 315 417.8 315.3 417.8 315.5C417.8 328.3 397.4 342 367.1 342C336.7 342 316.4 328.3 316.4 315.5L316.3 300.7ZM340.5 351.4L338.2 345.2L344.6 346.7C351.7 348.4 359.2 349.3 367 349.3C370.2 349.3 373.5 349.1 376.8 348.8L394.2 347.1L333.3 379.7L339.1 369.3C341 365.9 342 362.3 342 358.7C341.9 356.3 341.4 353.9 340.5 351.4ZM283.7 332.3C293 332.3 301.8 333.6 309.8 336.2L310.2 336.3L310.6 336.5C311 336.8 311.5 336.9 312.1 337L312.5 337.1L312.9 337.2C326.2 342.2 334.5 350.5 334.5 358.7C334.5 371.5 314.1 385.2 283.8 385.2C253.4 385.2 233.1 371.5 233.1 358.7C233 346 253.4 332.3 283.7 332.3ZM261.8 396.2L258.1 389.6L265.5 391C271.4 392.1 277.5 392.7 283.8 392.7C288 392.7 292.2 392.4 296.3 391.9L315 389.6L263.4 417.2L264.5 410.2C264.7 409.1 264.8 408 264.8 406.9C264.7 403.3 263.7 399.6 261.8 396.2ZM206.6 433.4C176.2 433.4 155.9 419.7 155.9 406.9C155.9 394.1 176.3 380.4 206.6 380.4C236.9 380.4 257.3 394.1 257.3 406.9C257.3 419.7 236.9 433.4 206.6 433.4ZM389.2 498.2L243.9 436L493.5 302.5L638.8 364.7L389.2 498.2Z" fill="white"/>
<path d="M574.9 377.1C574.9 378.1 574.4 379.1 573.5 379.6L520.3 408C519 408.7 517.3 408.2 516.7 406.9C516.4 406.3 516.3 405.6 516.5 404.9C516.7 404.2 517.2 403.7 517.8 403.3L566.2 377.4L564.3 374.2C563.6 373 563.2 371.7 563.1 370.4C563.1 369.3 563.2 367.6 564.2 365.8L566.1 362.4L505.1 336.3L503.7 336.9C495.3 340.4 483.6 341.1 475.2 338.5L473.8 338.1L421.8 365.9C420.5 366.6 418.9 366.1 418.2 364.8C417.9 364.2 417.8 363.4 418 362.8C418.2 362.1 418.7 361.6 419.3 361.2L472.5 332.7C473.2 332.3 474.1 332.3 474.8 332.6C482.6 335.9 495.8 335.2 503.7 331C504.4 330.6 505.3 330.6 506 330.9L573.3 359.7C574.2 360.1 574.9 361 574.9 362.1C574.9 363.1 574.4 364.1 573.5 364.6C571.1 365.9 569.8 367.2 569.2 368L567.4 370.4L569.5 372.5C570.3 373.4 571.5 374.1 573.1 374.8C574.2 375.2 574.8 376.1 574.9 377.1Z" fill="white"/>
<path d="M467 435.7C466.8 436.4 466.3 436.9 465.7 437.3L412.4 465.8C411.7 466.2 410.8 466.2 410.1 465.9C402.3 462.6 389.1 463.3 381.2 467.5C380.5 467.9 379.6 467.9 378.9 467.6L311.6 438.8C310.7 438.4 310 437.5 310 436.5C310 435.5 310.5 434.5 311.4 434C313.8 432.7 315.1 431.4 315.7 430.6L317.5 428.2L315.4 426.1C314.6 425.3 313.4 424.5 311.8 423.8C310.9 423.4 310.2 422.5 310.2 421.4C310.1 420.4 310.7 419.4 311.6 418.9L364.9 390.4C365.3 390.2 365.7 390.1 366.2 390.1C366.5 390.1 366.7 390.1 367 390.2C367.7 390.4 368.2 390.9 368.6 391.5C368.9 392.1 369 392.9 368.8 393.5C368.6 394.2 368.1 394.7 367.5 395.1L318.9 421.1L320.8 424.3C321.5 425.5 321.9 426.8 322 428.1C322 429.2 321.9 430.8 320.8 432.7L318.9 436.1L379.9 462.2L381.3 461.6C389.7 458.1 401.4 457.4 409.8 460L411.2 460.4L463.4 432.5C464 432.2 464.8 432.1 465.4 432.3C466.1 432.5 466.6 433 467 433.6C467.1 434.3 467.2 435 467 435.7Z" fill="white"/>
<path d="M264.4 139.7V146.1C264.4 148.1 262.7 149.8 260.7 149.8C258.7 149.8 257 148.1 257 146.1V139.7C257 137.7 258.7 136 260.7 136C262.7 136 264.4 137.6 264.4 139.7Z" fill="white"/>
<path d="M264.4 183.8V190.2C264.4 192.2 262.7 193.9 260.7 193.9C258.7 193.9 257 192.2 257 190.2V183.8C257 181.7 258.7 180.1 260.7 180.1C262.7 180.1 264.4 181.8 264.4 183.8Z" fill="white"/>
<path d="M245.5 165C245.5 167.1 243.8 168.7 241.8 168.7H235.4C233.4 168.7 231.7 167 231.7 165C231.7 163 233.4 161.3 235.4 161.3H241.8C243.9 161.3 245.5 162.9 245.5 165Z" fill="white"/>
<path d="M289.7 165C289.7 167.1 288 168.7 286 168.7H279.6C277.6 168.7 275.9 167 275.9 165C275.9 163 277.6 161.3 279.6 161.3H286C288 161.3 289.7 162.9 289.7 165Z" fill="white"/>
<path d="M534 200.5V206.9C534 209 532.3 210.6 530.3 210.6C528.3 210.6 526.6 208.9 526.6 206.9V200.5C526.6 198.5 528.3 196.8 530.3 196.8C532.3 196.8 534 198.4 534 200.5Z" fill="white"/>
<path d="M534 244.6V251C534 253 532.3 254.7 530.3 254.7C528.3 254.7 526.6 253 526.6 251V244.6C526.6 242.6 528.3 240.9 530.3 240.9C532.3 240.9 534 242.6 534 244.6Z" fill="white"/>
<path d="M515.1 225.8C515.1 227.8 513.4 229.5 511.4 229.5H505C503 229.5 501.3 227.8 501.3 225.8C501.3 223.7 503 222.1 505 222.1H511.4C513.5 222.1 515.1 223.7 515.1 225.8Z" fill="white"/>
<path d="M559.3 225.8C559.3 227.8 557.6 229.5 555.6 229.5H549.2C547.1 229.5 545.5 227.8 545.5 225.8C545.5 223.7 547.2 222.1 549.2 222.1H555.6C557.6 222.1 559.3 223.7 559.3 225.8Z" fill="white"/>
<path d="M185 247.8V254.2C185 256.3 183.3 257.9 181.3 257.9C179.2 257.9 177.6 256.2 177.6 254.2V247.8C177.6 245.8 179.3 244.1 181.3 244.1C183.3 244.1 185 245.7 185 247.8Z" fill="white"/>
<path d="M185 291.9V298.3C185 300.3 183.3 302 181.3 302C179.2 302 177.6 300.3 177.6 298.3V291.9C177.6 289.9 179.3 288.2 181.3 288.2C183.3 288.2 185 289.9 185 291.9Z" fill="white"/>
<path d="M166.1 273.1C166.1 275.1 164.4 276.8 162.4 276.8H156C154 276.8 152.3 275.1 152.3 273.1C152.3 271.1 154 269.4 156 269.4H162.4C164.5 269.4 166.1 271 166.1 273.1Z" fill="white"/>
<path d="M210.3 273.1C210.3 275.1 208.6 276.8 206.6 276.8H200.2C198.2 276.8 196.5 275.1 196.5 273.1C196.5 271.1 198.2 269.4 200.2 269.4H206.6C208.6 269.4 210.3 271 210.3 273.1Z" fill="white"/>
<path d="M265.946 249.427C267.151 246.518 265.77 243.184 262.861 241.979C259.953 240.774 256.618 242.155 255.414 245.064C254.209 247.972 255.59 251.307 258.498 252.511C261.407 253.716 264.741 252.335 265.946 249.427Z" fill="white"/>
<path d="M598.5 289C601.648 289 604.2 286.448 604.2 283.3C604.2 280.152 601.648 277.6 598.5 277.6C595.352 277.6 592.8 280.152 592.8 283.3C592.8 286.448 595.352 289 598.5 289Z" fill="white"/>
<path d="M441.4 373.6C419.2 373.6 400.7 383.3 398.7 396.1C397.9 401.5 400.1 406.7 404.5 411L398.1 414.7L401.1 418.8L408.8 414.4C409.6 414.9 410.4 415.4 411.2 415.9C412 416.4 412.9 416.8 413.8 417.3L408.2 420.5L411.2 424.6L419.7 419.7C425 421.5 431 422.7 437.5 423C461.1 424.3 481.9 414.2 484 400.6L476.9 396.5C477.1 397.7 477.1 398.9 476.9 400.1C475.2 411.5 458 419.9 438.3 418.9C433.5 418.7 428.9 417.9 424.9 416.6L458.3 397.2L455.3 393.1L418.7 414.3C417.8 413.9 416.9 413.4 416.1 412.9C415.2 412.4 414.4 411.9 413.7 411.4L452.3 388.9L449.3 384.8L409.8 408C406.7 404.6 405.2 400.7 405.8 396.6C407.5 385.2 424.7 376.8 444.4 377.8L441.4 373.6Z" fill="white"/>
</g>
<defs>
<clipPath id="clip0_1_126">
<rect width="800" height="800" fill="white"/>
</clipPath>
</defs>
</svg>
